X:1
T: Green Grows the Rashes O'
C:
R:Reel
Q: 232
K:G
M:4/4
L:1/8
|:D|G1/2G1/2G BA BG GB|Ae ed eA AB|cB ce d1/2c1/2B1/2A1/2C GB|Ac BA GE ED|
G1/2G1/2G BA BG GB|Ae ed eA AB|cB ce d1/2c1/2B1/2A1/2 GB|Ac BA GE ED|
G1/2G1/2G gf gd dg|ea ag ae ef|ga ge d1/2c1/2B1/2A1/2 GB|Ac BA GE ED|
G1/2G1/2G gf gd dg|ea ag ae ef|ga ge d1/2c1/2B1/2A1/2 GB|Ac BA GE E:|
